X:1
T:Old Sally Walker
M:4/4
L:1/4
K:C
 G G/2G/2 A D| G G/2G/2 A2| B A/2A/2 G F| E F G2| G G/2G/2 A- D| G G/2G/2 A2|\
 B A/2A/2 G/2G/2 F| E F G2|

